X:1
T:Title
%%score ( 1 2 ) ( 3 4 )
L:1/8
Q:1/4=96
M:3/4
K:Eb
V:1 treble nm="Midi_20"
V:2 treble 
V:3 bass nm="Midi_20"
V:4 bass 
V:1
"^Lacrymae (7 7 7.)""^Sir Arthur Sullivan\n(1842-1900)" G4 G2 | (G2 A2) B2 | E4 F2 | G6 || B4 B2 | %5
 e4 d2 |[M:3/4] c4 c2 | B6 || c4 B2 | (A2 G2) F2 | B4 D2 | E6 |] %12
V:2
 E4 E2 | E4 E2 | E4 D2 | E6 || F4 F2 | E4 F2 |[M:3/4] (G2 F2) E2 | D6 || F4 C2 | C4 C2 | D4 B,2 | %11
 B,6 |] %12
V:3
 B,4 B,2 | B,4 B,2 | G,4 A,2 | G,6 || F,4 F,2 | (G,2 =A,2) B,2 |[M:3/4] B,4 =A,2 | B,6 || %8
 _A,4 =E,2 | (F,2 G,2) A,2 | A,4 A,2 | G,6 |] %12
V:4
 E,4 E,2 | (E,2 F,2) G,2 | B,,4 B,,2 | E,6 || D,4 D,2 | C,4 D,2 |[M:3/4] (E,2 F,2) F,,2 | B,,6 || %8
 F,,4 G,,2 | A,,4 A,,2 | B,,4 B,,2 | E,6 |] %12

